science/modern/image_2ae7a8c.svg

<?xml version="1.0" encoding="UTF-8" standalone="yes"?>
<!-- Created with Inkscape (http://www.inkscape.org/) -->
<svg
   xmlns:svg="http://www.w3.org/2000/svg"
   xmlns="http://www.w3.org/2000/svg"
   xmlns:xlink="http://www.w3.org/1999/xlink"
   id="svg1384"
   height="204.24500"
   width="169.92300"
   y="0.0000000"
   x="0.0000000"
   version="1.0">
  <defs
     id="defs1386">
    <marker
       id="ArrowEnd"
       viewBox="0 0 10 10"
       orient="auto"
       markerHeight="3.0000000"
       markerWidth="4.0000000"
       refY="5.0000000"
       refX="0.0000000"
       markerUnits="strokeWidth">
      <path
         id="path1389"
         d="M 0.0000000,0.0000000 L 10.000000,5.0000000 L 0.0000000,10.000000 L 0.0000000,0.0000000 z " />
    </marker>
    <marker
       id="ArrowStart"
       viewBox="0 0 10 10"
       orient="auto"
       markerHeight="3.0000000"
       markerWidth="4.0000000"
       refY="5.0000000"
       refX="10.000000"
       markerUnits="strokeWidth">
      <path
         id="path1392"
         d="M 10.000000,0.0000000 L 0.0000000,5.0000000 L 10.000000,10.000000 L 10.000000,0.0000000 z " />
    </marker>
    <pattern
       id="pattern2262"
       patternTransform="translate(143.1340,15.58280)"
       height="183.42120"
       width="14.275000"
       patternUnits="userSpaceOnUse">
      <path
         transform="translate(-143.1340,-15.58280)"
         id="path2264"
         d="M 143.13400,15.582800 L 157.40900,15.582800 L 157.40900,199.00400 L 143.13400,199.00400 L 143.13400,15.582800 z "
         style="fill-opacity:1.0000000;stroke:none;fill:none" />
    </pattern>
    <pattern
       id="pattern2270"
       patternTransform="translate(143.1340,15.58280)"
       height="183.42120"
       width="14.275000"
       patternUnits="userSpaceOnUse">
      <path
         transform="translate(-143.1340,-15.58280)"
         id="path2272"
         d="M 143.13400,15.582800 L 157.40900,15.582800 L 157.40900,199.00400 L 143.13400,199.00400 L 143.13400,15.582800 z "
         style="fill:none;fill-opacity:1.0000000;stroke:none" />
    </pattern>
  </defs>
  <rect
     id="rect2266"
     style="fill:none;stroke:none"
     y="15.582800"
     x="143.13400"
     height="183.42120"
     width="14.275000" />
  <path
     id="path1398"
     style="fill:none;stroke:#000000;stroke-width:0.56692916"
     d="M 143.67300,107.42800 L 11.153200,107.42800" />
  <path
     id="path1400"
     style="fill:none;stroke:#000000;stroke-width:1.0000000"
     d="M 143.13400,15.852200 L 143.13400,199.00400" />
  <path
     id="path1402"
     style="fill:none;stroke:#000000;stroke-width:1.0000000"
     d="M 143.13400,107.29300 L 28.743900,41.249900" />
  <path
     id="path1404"
     style="fill:none;stroke:#000000;stroke-width:1.0000000"
     d="M 143.26900,107.29300 L 28.977000,173.28000" />
  <path
     id="path1406"
     style="fill:none;stroke:#000000;stroke-width:1.0000000"
     d="M 125.94600,117.43100 C 124.23700,114.48500 123.25800,111.06400 123.25800,107.41600" />
  <path
     id="path1408"
     style="fill:none;stroke:#000000;stroke-width:1.0000000"
     d="M 121.05900,93.905600 C 118.86700,97.803600 117.61100,102.33100 117.61100,107.15800" />
  <text
     id="text1410"
     style="font-size:12.000000;fill:#000000;stroke:none;font-family:Times-Bold"
     y="37.1301"
     x="23.0086">P</text>
  <text
     id="text1412"
     style="font-size:12.000000;fill:#000000;stroke:none;font-family:Times-Bold"
     y="173.416"
     x="17.083099">Q</text>
  <use
     xlink:href="#path4610"
     height="204.24500"
     width="169.92300"
     y="0.0000000"
     x="0.0000000"
     id="use4736"
     transform="translate(0.000000,80.67254)" />
  <use
     xlink:href="#path4610"
     height="204.24500"
     width="169.92300"
     y="0.0000000"
     x="0.0000000"
     id="use4738"
     transform="translate(0.000000,90.75660)" />
  <path
     id="path1416"
     style="fill:#ffffff;stroke:none"
     d="M 145.28900,99.078400 L 159.29500,99.078400 L 159.29500,113.62300 L 145.28900,113.62300 L 145.28900,99.078400 z " />
  <text
     id="text1418"
     style="font-size:12.000000;fill:#000000;stroke:none;font-family:Times-Bold"
     y="110.97707"
     x="147.68997">O</text>
  <g
     id="g1422">
    <g
       id="g1424">
      <path
         id="path1426"
         style="fill:#000000;stroke:none"
         d="M 105.86100,93.081800 C 105.86100,91.413900 105.33800,89.803100 103.99700,89.803100 L 103.98100,90.076700 C 104.52000,90.076700 104.87600,90.544700 104.87600,92.149800 C 104.87600,92.730500 104.82700,93.537300 104.35700,95.344500 L 100.90600,95.344500 C 101.15100,94.391700 101.49500,93.034800 102.14900,91.888000 C 102.68900,90.906700 103.26100,90.076700 103.98100,90.076700 L 103.99700,89.803100 C 101.70800,89.803100 99.270600,94.590300 99.270600,98.184700 C 99.270600,98.937000 99.434200,101.63700 101.15100,101.63700 L 101.16800,101.36300 C 100.66100,101.36300 100.22500,100.92800 100.22500,99.132800 C 100.22500,98.074200 100.50000,96.966500 100.77500,95.891700 L 104.24200,95.891700 C 103.83300,97.488500 103.49000,98.515100 102.90100,99.541800 C 102.42700,100.37600 101.85500,101.36300 101.16800,101.36300 L 101.15100,101.63700 C 103.37600,101.63700 105.86100,96.867200 105.86100,93.081800 z " />
      <path
         id="path1428"
         style="fill:#000000;stroke:none"
         d="M 109.31700,96.967000 C 109.31700,96.727100 109.14300,96.438800 108.89200,96.438800 C 108.60900,96.438800 108.31100,96.750900 108.31100,97.141300 C 108.31100,97.381200 108.47800,97.533100 108.71800,97.533100 C 109.00100,97.533100 109.31700,97.281400 109.31700,96.967000 z " />
      <path
         id="path1430"
         style="fill:#000000;stroke:none"
         d="M 107.72600,100.96800 C 107.43100,101.68800 107.43100,101.71000 107.13700,102.47300 C 107.08200,102.63600 107.06400,102.76700 107.06400,102.95300 C 107.06400,103.48700 107.46300,103.82500 108.02000,103.82500 C 109.07700,103.82500 109.52400,102.34800 109.52400,102.21100 C 109.52400,102.10200 109.43800,102.07000 109.36100,102.07000 C 109.23000,102.07000 109.20900,102.14600 109.17600,102.25500 C 108.92500,103.12700 108.47800,103.55200 108.04200,103.55200 C 107.91100,103.55200 107.88500,103.50100 107.88500,103.22500 C 107.88500,102.96400 107.92400,102.76700 107.99800,102.42900 C 108.10700,102.13500 108.21600,101.84100 108.33600,101.54600 C 108.44500,101.25200 108.56500,100.95700 108.67400,100.66300 C 108.77200,100.41200 108.97900,100.07400 108.97900,99.888700 C 108.97900,99.343500 108.50900,99.174400 107.91100,99.174400 C 106.85300,99.174400 106.39500,100.50600 106.39500,100.63000 C 106.39500,100.72800 106.47200,100.77200 106.55900,100.77200 C 106.70100,100.77200 106.71100,100.70600 106.74400,100.59800 C 107.05000,99.561800 107.55100,99.448000 107.87800,99.448000 C 108.03100,99.448000 108.15800,99.475100 108.15800,99.627200 C 108.15800,99.736100 108.14600,99.888700 108.02000,100.21600 L 107.72600,100.96800 z " />
    </g>
  </g>
  <g
     id="g1432">
    <g
       id="g1434">
      <path
         id="path1436"
         style="fill:#000000;stroke:none"
         d="M 106.90000,115.07000 C 106.90000,113.43400 106.38700,111.85500 105.07100,111.85500 L 105.05500,112.12300 C 105.58500,112.12300 105.93300,112.58200 105.93300,114.15600 C 105.93300,114.72600 105.88500,115.51700 105.42400,117.29000 L 102.04000,117.29000 C 102.28000,116.35500 102.61700,115.02400 103.25900,113.89900 C 103.78800,112.93700 104.35000,112.12300 105.05500,112.12300 L 105.07100,111.85500 C 102.82600,111.85500 100.43600,116.55000 100.43600,120.07500 C 100.43600,120.81300 100.59600,123.46100 102.28000,123.46100 L 102.29600,123.19200 C 101.79900,123.19200 101.37200,122.76600 101.37200,121.00500 C 101.37200,119.96700 101.64200,118.88000 101.91100,117.82600 L 105.31200,117.82600 C 104.91100,119.39200 104.57400,120.39900 103.99700,121.40600 C 103.53100,122.22400 102.97000,123.19200 102.29600,123.19200 L 102.28000,123.46100 C 104.46200,123.46100 106.90000,118.78300 106.90000,115.07000 z " />
      <path
         id="path1438"
         style="fill:#000000;stroke:none"
         d="M 109.16700,124.07800 C 109.28400,123.61800 109.40200,123.15800 109.50900,122.68800 C 109.52000,122.66600 109.59400,122.35600 109.60500,122.30300 C 109.63700,122.20700 109.90500,121.76800 110.18300,121.50100 C 110.52500,121.19100 110.88800,121.31400 111.08100,121.31400 C 111.19800,121.31400 111.39100,121.31200 111.54100,121.27600 C 111.08100,121.37200 111.04200,121.76800 111.04200,121.86400 C 111.04200,122.10000 111.21300,122.38700 111.43400,122.38700 C 111.72200,122.38700 112.11500,122.10700 112.11500,121.59700 C 112.11500,121.21200 111.75800,121.04600 111.10200,121.04600 C 110.37500,121.04600 109.88300,121.39700 109.65900,121.60800 C 109.44500,120.83800 108.71700,121.04600 108.61100,121.04600 C 108.22600,121.04600 107.95800,121.20300 107.78700,121.41500 C 107.54100,121.89700 107.42400,122.44200 107.42400,122.47400 C 107.42400,122.57000 107.49800,122.61300 107.58400,122.61300 C 107.72300,122.61300 107.73400,122.57000 107.80900,122.29200 C 107.93700,121.76800 108.12900,121.31400 108.57800,121.31400 C 108.85600,121.31400 108.92000,121.48800 108.92000,121.64000 C 108.92000,121.83200 108.86700,122.03500 108.78100,122.38800 C 108.76000,122.47400 108.60000,123.10500 108.55700,123.25400 C 108.38600,123.96000 108.31100,124.23800 108.16100,124.85800 C 108.11800,125.01900 108.05400,125.28600 108.05400,125.32900 C 108.05400,125.57500 108.25800,125.60700 108.39700,125.60700 C 108.77100,125.60700 108.84600,125.33200 108.93100,124.99800 L 109.16700,124.07800 z " />
    </g>
  </g>
  <path
     id="path4610"
     style="fill:none;fill-opacity:0.75000000;fill-rule:evenodd;stroke:#000000;stroke-width:1.0000000px;stroke-linecap:butt;stroke-linejoin:miter;stroke-opacity:1.0000000"
     d="M 143.01681,17.303443 L 152.10088,26.387510" />
  <use
     xlink:href="#path4610"
     height="204.24500"
     width="169.92300"
     y="0.0000000"
     x="0.0000000"
     id="use4722"
     transform="translate(0.000000,10.08407)" />
  <use
     xlink:href="#path4610"
     height="204.24500"
     width="169.92300"
     y="0.0000000"
     x="0.0000000"
     id="use4724"
     transform="translate(0.000000,20.16813)" />
  <use
     xlink:href="#path4610"
     height="204.24500"
     width="169.92300"
     y="0.0000000"
     x="0.0000000"
     id="use4726"
     transform="translate(0.000000,30.25220)" />
  <use
     xlink:href="#path4610"
     height="204.24500"
     width="169.92300"
     y="0.0000000"
     x="0.0000000"
     id="use4728"
     transform="translate(0.000000,40.33627)" />
  <use
     xlink:href="#path4610"
     height="204.24500"
     width="169.92300"
     y="0.0000000"
     x="0.0000000"
     id="use4730"
     transform="translate(0.000000,50.42034)" />
  <use
     xlink:href="#path4610"
     height="204.24500"
     width="169.92300"
     y="0.0000000"
     x="0.0000000"
     id="use4732"
     transform="translate(0.000000,60.50440)" />
  <use
     xlink:href="#path4610"
     height="204.24500"
     width="169.92300"
     y="0.0000000"
     x="0.0000000"
     id="use4734"
     transform="translate(0.000000,70.58847)" />
  <use
     xlink:href="#path4610"
     height="204.24500"
     width="169.92300"
     y="0.0000000"
     x="0.0000000"
     id="use4740"
     transform="translate(0.000000,100.8407)" />
  <use
     xlink:href="#path4610"
     height="204.24500"
     width="169.92300"
     y="0.0000000"
     x="0.0000000"
     id="use4742"
     transform="translate(0.000000,110.9247)" />
  <use
     xlink:href="#path4610"
     height="204.24500"
     width="169.92300"
     y="0.0000000"
     x="0.0000000"
     id="use4744"
     transform="translate(0.000000,121.0088)" />
  <use
     xlink:href="#path4610"
     height="204.24500"
     width="169.92300"
     y="0.0000000"
     x="0.0000000"
     id="use4746"
     transform="translate(0.000000,131.0929)" />
  <use
     xlink:href="#path4610"
     height="204.24500"
     width="169.92300"
     y="0.0000000"
     x="0.0000000"
     id="use4748"
     transform="translate(0.000000,141.1769)" />
  <use
     xlink:href="#path4610"
     height="204.24500"
     width="169.92300"
     y="0.0000000"
     x="0.0000000"
     id="use4750"
     transform="translate(0.000000,151.2610)" />
  <use
     xlink:href="#path4610"
     height="204.24500"
     width="169.92300"
     y="0.0000000"
     x="0.0000000"
     id="use4752"
     transform="translate(0.000000,161.3451)" />
  <use
     xlink:href="#path4610"
     height="204.24500"
     width="169.92300"
     y="0.0000000"
     x="0.0000000"
     id="use4754"
     transform="translate(0.000000,171.4291)" />
</svg>

<?xml version="1.0" encoding="UTF-8" standalone="yes"?><svg xmlns="http://www.w3.org/2000/svg" height="204.25" width="169.92"><path d="M143.13 15.58h14.28V199h-14.28z" fill="none"/><path d="M143.673 107.428H11.153" fill="none" stroke="#000" stroke-width="0.57"/><path d="M143.134 15.852v183.152m0-91.711L28.744 41.25m114.525 66.043L28.977 173.28m96.969-55.849a19.9 19.9 0 0 1-2.688-10.015m-2.199-13.51a26.97 26.97 0 0 0-3.448 13.252" fill="none" stroke="#000"/><text y="37.13" x="23.01" font-size="12" font-family="Times-Bold">P</text><text y="173.42" x="17.08" font-size="12" font-family="Times-Bold">Q</text><use height="204.25" width="169.92" transform="translate(0 80.673)" href="#a"/><use height="204.25" width="169.92" transform="translate(0 90.757)" href="#a"/><path d="M145.289 99.078h14.006v14.545h-14.006z" fill="#fff"/><text y="110.98" x="147.69" font-size="12" font-family="Times-Bold">O</text><path d="M105.861 93.082c0-1.668-.523-3.279-1.864-3.279l-.016.274c.539 0 .895.468.895 2.073 0 .58-.049 1.387-.519 3.194h-3.451c.245-.952.589-2.31 1.243-3.456.54-.981 1.112-1.811 1.832-1.811l.016-.274c-2.289 0-4.726 4.787-4.726 8.382 0 .752.163 3.452 1.88 3.452l.017-.274c-.507 0-.943-.435-.943-2.23 0-1.059.275-2.166.55-3.241h3.467c-.409 1.597-.752 2.623-1.341 3.65-.474.834-1.046 1.821-1.733 1.821l-.017.274c2.225 0 4.71-4.77 4.71-8.555m3.456 3.885c0-.24-.174-.528-.425-.528-.283 0-.581.312-.581.702 0 .24.167.392.407.392.283 0 .599-.252.599-.566m-1.591 4.001c-.295.72-.295.742-.589 1.505a1.4 1.4 0 0 0-.073.48c0 .534.399.872.956.872 1.057 0 1.504-1.477 1.504-1.614 0-.109-.086-.141-.163-.141-.131 0-.152.076-.185.185-.251.872-.698 1.297-1.134 1.297-.131 0-.157-.051-.157-.327 0-.261.039-.458.113-.796.109-.294.218-.588.338-.883.109-.294.229-.589.338-.883.098-.251.305-.589.305-.774 0-.545-.47-.715-1.068-.715-1.058 0-1.516 1.332-1.516 1.456 0 .098.077.142.164.142.142 0 .152-.066.185-.174.306-1.036.807-1.15 1.134-1.15.153 0 .28.027.28.18 0 .108-.012.26-.138.588zm-.826 14.102c0-1.636-.513-3.215-1.829-3.215l-.016.268c.53 0 .878.459.878 2.033 0 .57-.048 1.361-.509 3.134h-3.384c.24-.935.577-2.266 1.219-3.391.529-.962 1.091-1.776 1.796-1.776l.016-.268c-2.245 0-4.635 4.695-4.635 8.22 0 .738.16 3.386 1.844 3.386l.016-.269c-.497 0-.924-.426-.924-2.187 0-1.038.27-2.125.539-3.179h3.401c-.401 1.566-.738 2.573-1.315 3.58-.466.818-1.027 1.786-1.701 1.786l-.016.269c2.182 0 4.62-4.678 4.62-8.391m2.267 9.008c.117-.46.235-.92.342-1.39.011-.022.085-.332.096-.385.032-.096.3-.535.578-.802.342-.31.705-.187.898-.187.117 0 .31-.002.46-.038a.594.594 0 0 0-.499.588c0 .236.171.523.392.523.288 0 .681-.28.681-.79 0-.385-.357-.551-1.013-.551-.727 0-1.219.351-1.443.562-.214-.77-.942-.562-1.048-.562-.385 0-.653.157-.824.369a4.3 4.3 0 0 0-.363 1.059c0 .096.074.139.16.139.139 0 .15-.043.225-.321.128-.524.32-.978.769-.978.278 0 .342.174.342.326 0 .192-.053.395-.139.748-.021.086-.181.717-.224.866-.171.706-.246.984-.396 1.604a5 5 0 0 0-.107.471c0 .246.204.278.343.278.374 0 .449-.275.534-.609z"/><use height="204.25" width="169.92" transform="translate(0 10.084)" href="#a"/><use height="204.25" width="169.92" transform="translate(0 20.168)" href="#a"/><use height="204.25" width="169.92" transform="translate(0 30.252)" href="#a"/><use height="204.25" width="169.92" transform="translate(0 40.336)" href="#a"/><use height="204.25" width="169.92" transform="translate(0 50.42)" href="#a"/><use height="204.25" width="169.92" transform="translate(0 60.504)" href="#a"/><use height="204.25" width="169.92" transform="translate(0 70.588)" href="#a"/><use height="204.25" width="169.92" transform="translate(0 100.84)" href="#a"/><use height="204.25" width="169.92" transform="translate(0 110.925)" href="#a"/><use height="204.25" width="169.92" transform="translate(0 121.009)" href="#a"/><use height="204.25" width="169.92" transform="translate(0 131.093)" href="#a"/><use height="204.25" width="169.92" transform="translate(0 141.177)" href="#a"/><use height="204.25" width="169.92" transform="translate(0 151.261)" href="#a"/><use height="204.25" width="169.92" transform="translate(0 161.345)" href="#a"/><use height="204.25" width="169.92" transform="translate(0 171.43)" href="#a"/></svg>
